static/img/kroki/81e164ae4d1e29a343910d339896852e.svg

<?xml version="1.0" encoding="us-ascii" standalone="no"?><svg xmlns="http://www.w3.org/2000/svg" xmlns:xlink="http://www.w3.org/1999/xlink" contentStyleType="text/css" height="838px" preserveAspectRatio="none" style="width:362px;height:838px;" version="1.1" viewBox="0 0 362 838" width="362px" zoomAndPan="magnify"><defs/><g><!--class gcp_deprecation_status--><g id="elem_gcp_deprecation_status"><rect codeLine="22" fill="#3D176E" height="179.2734" id="gcp_deprecation_status" rx="2.5" ry="2.5" style="stroke:#000D19;stroke-width:0.5;" width="237" x="62.5" y="651.74"/><ellipse cx="77.5" cy="671.6345" fill="#ADD1B2" rx="11" ry="11" style="stroke:#181818;stroke-width:1.0;"/><path d="M80.4688,677.2752 Q79.8906,677.572 79.25,677.7127 Q78.6094,677.8689 77.9063,677.8689 Q75.4063,677.8689 74.0781,676.2283 Q72.7656,674.572 72.7656,671.447 Q72.7656,668.322 74.0781,666.6658 Q75.4063,665.0095 77.9063,665.0095 Q78.6094,665.0095 79.25,665.1658 Q79.9063,665.322 80.4688,665.6189 L80.4688,668.3377 Q79.8438,667.7595 79.25,667.4939 Q78.6563,667.2127 78.0313,667.2127 Q76.6875,667.2127 76,668.2908 Q75.3125,669.3533 75.3125,671.447 Q75.3125,673.5408 76,674.6189 Q76.6875,675.6814 78.0313,675.6814 Q78.6563,675.6814 79.25,675.4158 Q79.8438,675.1345 80.4688,674.5564 L80.4688,677.2752 Z " fill="#000000"/><text fill="#D9B8FF" font-family="Helvetica" font-size="17" lengthAdjust="spacing" textLength="195" x="96.5" y="677.5198">gcp_deprecation_status</text><line style="stroke:#000D19;stroke-width:0.5;" x1="63.5" x2="298.5" y1="691.5291" y2="691.5291"/><text fill="#D9B8FF" font-family="sans-serif" font-size="14" font-weight="bold" lengthAdjust="spacing" textLength="60" x="73.5" y="713.5242">deleted</text><text fill="#D9B8FF" font-family="sans-serif" font-size="14" lengthAdjust="spacing" textLength="48" x="133.5" y="713.5242">: string</text><text fill="#D9B8FF" font-family="sans-serif" font-size="14" font-weight="bold" lengthAdjust="spacing" textLength="91" x="73.5" y="739.8211">deprecated</text><text fill="#D9B8FF" font-family="sans-serif" font-size="14" lengthAdjust="spacing" textLength="48" x="164.5" y="739.8211">: string</text><text fill="#D9B8FF" font-family="sans-serif" font-size="14" font-weight="bold" lengthAdjust="spacing" textLength="69" x="73.5" y="766.1179">obsolete</text><text fill="#D9B8FF" font-family="sans-serif" font-size="14" lengthAdjust="spacing" textLength="48" x="142.5" y="766.1179">: string</text><text fill="#D9B8FF" font-family="sans-serif" font-size="14" font-weight="bold" lengthAdjust="spacing" textLength="99" x="73.5" y="792.4148">replacement</text><text fill="#D9B8FF" font-family="sans-serif" font-size="14" lengthAdjust="spacing" textLength="48" x="172.5" y="792.4148">: string</text><text fill="#D9B8FF" font-family="sans-serif" font-size="14" font-weight="bold" lengthAdjust="spacing" textLength="40" x="73.5" y="818.7117">state</text><text fill="#D9B8FF" font-family="sans-serif" font-size="14" lengthAdjust="spacing" textLength="48" x="113.5" y="818.7117">: string</text></g><!--class gcp_resource--><g id="elem_gcp_resource"><rect codeLine="29" fill="#3D176E" height="152.9766" id="gcp_resource" rx="2.5" ry="2.5" style="stroke:#000D19;stroke-width:0.5;" width="348" x="7" y="438.76"/><ellipse cx="117.75" cy="458.6545" fill="#ADD1B2" rx="11" ry="11" style="stroke:#181818;stroke-width:1.0;"/><path d="M120.7188,464.2952 Q120.1406,464.592 119.5,464.7327 Q118.8594,464.8889 118.1563,464.8889 Q115.6563,464.8889 114.3281,463.2483 Q113.0156,461.592 113.0156,458.467 Q113.0156,455.342 114.3281,453.6858 Q115.6563,452.0295 118.1563,452.0295 Q118.8594,452.0295 119.5,452.1858 Q120.1563,452.342 120.7188,452.6389 L120.7188,455.3577 Q120.0938,454.7795 119.5,454.5139 Q118.9063,454.2327 118.2813,454.2327 Q116.9375,454.2327 116.25,455.3108 Q115.5625,456.3733 115.5625,458.467 Q115.5625,460.5608 116.25,461.6389 Q116.9375,462.7014 118.2813,462.7014 Q118.9063,462.7014 119.5,462.4358 Q120.0938,462.1545 120.7188,461.5764 L120.7188,464.2952 Z " fill="#000000"/><text fill="#D9B8FF" font-family="Helvetica" font-size="17" lengthAdjust="spacing" textLength="108" x="143.25" y="464.5398">gcp_resource</text><line style="stroke:#000D19;stroke-width:0.5;" x1="8" x2="354" y1="478.5491" y2="478.5491"/><text fill="#D9B8FF" font-family="sans-serif" font-size="14" font-weight="bold" lengthAdjust="spacing" textLength="151" x="18" y="500.5442">deprecation_status</text><text fill="#D9B8FF" font-family="sans-serif" font-size="14" lengthAdjust="spacing" textLength="175" x="169" y="500.5442">: gcp_deprecation_status</text><text fill="#D9B8FF" font-family="sans-serif" font-size="14" font-weight="bold" lengthAdjust="spacing" textLength="89" x="18" y="526.8411">description</text><text fill="#D9B8FF" font-family="sans-serif" font-size="14" lengthAdjust="spacing" textLength="48" x="107" y="526.8411">: string</text><text fill="#D9B8FF" font-family="sans-serif" font-size="14" font-weight="bold" lengthAdjust="spacing" textLength="128" x="18" y="553.1379">label_fingerprint</text><text fill="#D9B8FF" font-family="sans-serif" font-size="14" lengthAdjust="spacing" textLength="48" x="146" y="553.1379">: string</text><text fill="#D9B8FF" font-family="sans-serif" font-size="14" font-weight="bold" lengthAdjust="spacing" textLength="27" x="18" y="579.4348">link</text><text fill="#D9B8FF" font-family="sans-serif" font-size="14" lengthAdjust="spacing" textLength="48" x="45" y="579.4348">: string</text></g><!--class resource--><g id="elem_resource"><rect codeLine="35" fill="#3D176E" height="310.7578" id="resource" rx="2.5" ry="2.5" style="stroke:#000D19;stroke-width:0.5;" width="227" x="67.5" y="7"/><ellipse cx="136.25" cy="26.8945" fill="#ADD1B2" rx="11" ry="11" style="stroke:#181818;stroke-width:1.0;"/><path d="M139.2188,32.5352 Q138.6406,32.832 138,32.9727 Q137.3594,33.1289 136.6563,33.1289 Q134.1563,33.1289 132.8281,31.4883 Q131.5156,29.832 131.5156,26.707 Q131.5156,23.582 132.8281,21.9258 Q134.1563,20.2695 136.6563,20.2695 Q137.3594,20.2695 138,20.4258 Q138.6563,20.582 139.2188,20.8789 L139.2188,23.5977 Q138.5938,23.0195 138,22.7539 Q137.4063,22.4727 136.7813,22.4727 Q135.4375,22.4727 134.75,23.5508 Q134.0625,24.6133 134.0625,26.707 Q134.0625,28.8008 134.75,29.8789 Q135.4375,30.9414 136.7813,30.9414 Q137.4063,30.9414 138,30.6758 Q138.5938,30.3945 139.2188,29.8164 L139.2188,32.5352 Z " fill="#000000"/><text fill="#D9B8FF" font-family="Helvetica" font-size="17" lengthAdjust="spacing" textLength="71" x="161.75" y="32.7798">resource</text><line style="stroke:#000D19;stroke-width:0.5;" x1="68.5" x2="293.5" y1="46.7891" y2="46.7891"/><text fill="#D9B8FF" font-family="sans-serif" font-size="14" font-weight="bold" lengthAdjust="spacing" textLength="29" x="78.5" y="68.7842">age</text><text fill="#D9B8FF" font-family="sans-serif" font-size="14" lengthAdjust="spacing" textLength="66" x="107.5" y="68.7842">: duration</text><text fill="#D9B8FF" font-family="sans-serif" font-size="14" font-weight="bold" lengthAdjust="spacing" textLength="43" x="78.5" y="95.0811">atime</text><text fill="#D9B8FF" font-family="sans-serif" font-size="14" lengthAdjust="spacing" textLength="70" x="121.5" y="95.0811">: datetime</text><text fill="#D9B8FF" font-family="sans-serif" font-size="14" font-weight="bold" lengthAdjust="spacing" textLength="43" x="78.5" y="121.3779">ctime</text><text fill="#D9B8FF" font-family="sans-serif" font-size="14" lengthAdjust="spacing" textLength="70" x="121.5" y="121.3779">: datetime</text><text fill="#D9B8FF" font-family="sans-serif" font-size="14" font-weight="bold" lengthAdjust="spacing" textLength="14" x="78.5" y="147.6748">id</text><text fill="#D9B8FF" font-family="sans-serif" font-size="14" lengthAdjust="spacing" textLength="48" x="92.5" y="147.6748">: string</text><text fill="#D9B8FF" font-family="sans-serif" font-size="14" font-weight="bold" lengthAdjust="spacing" textLength="33" x="78.5" y="173.9717">kind</text><text fill="#D9B8FF" font-family="sans-serif" font-size="14" lengthAdjust="spacing" textLength="48" x="111.5" y="173.9717">: string</text><text fill="#D9B8FF" font-family="sans-serif" font-size="14" font-weight="bold" lengthAdjust="spacing" textLength="90" x="78.5" y="200.2686">last_access</text><text fill="#D9B8FF" font-family="sans-serif" font-size="14" lengthAdjust="spacing" textLength="66" x="168.5" y="200.2686">: duration</text><text fill="#D9B8FF" font-family="sans-serif" font-size="14" font-weight="bold" lengthAdjust="spacing" textLength="90" x="78.5" y="226.5654">last_update</text><text fill="#D9B8FF" font-family="sans-serif" font-size="14" lengthAdjust="spacing" textLength="66" x="168.5" y="226.5654">: duration</text><text fill="#D9B8FF" font-family="sans-serif" font-size="14" font-weight="bold" lengthAdjust="spacing" textLength="48" x="78.5" y="252.8623">mtime</text><text fill="#D9B8FF" font-family="sans-serif" font-size="14" lengthAdjust="spacing" textLength="70" x="126.5" y="252.8623">: datetime</text><text fill="#D9B8FF" font-family="sans-serif" font-size="14" font-weight="bold" lengthAdjust="spacing" textLength="43" x="78.5" y="279.1592">name</text><text fill="#D9B8FF" font-family="sans-serif" font-size="14" lengthAdjust="spacing" textLength="48" x="121.5" y="279.1592">: string</text><text fill="#D9B8FF" font-family="sans-serif" font-size="14" font-weight="bold" lengthAdjust="spacing" textLength="34" x="78.5" y="305.4561">tags</text><text fill="#D9B8FF" font-family="sans-serif" font-size="14" lengthAdjust="spacing" textLength="171" x="112.5" y="305.4561">: dictionary[string, string]</text></g><!--link gcp_resource to gcp_deprecation_status--><g id="link_gcp_resource_gcp_deprecation_status"><path codeLine="47" d="M181,592.13 C181,609.39 181,627.94 181,645.87 " fill="none" id="gcp_resource-to-gcp_deprecation_status" style="stroke:#FFAF37;stroke-width:2.0;"/><polygon fill="#FFAF37" points="181,650.41,185,641.41,181,645.41,177,641.41,181,650.41" style="stroke:#FFAF37;stroke-width:2.0;"/></g><!--reverse link resource to gcp_resource--><g id="link_resource_gcp_resource"><path codeLine="48" d="M181,338.65 C181,373.74 181,408.83 181,438.31 " fill="none" id="resource-backto-gcp_resource" style="stroke:#FFAF37;stroke-width:2.0;"/><polygon fill="none" points="174,339.04,181,319.04,188,339.04,174,339.04" style="stroke:#FFAF37;stroke-width:2.0;"/></g><!--SRC=[XPDRQzmm48NVyoi4ULjgs6reDrjA8La8xKieJTzAMSRIs2lMkZ2I6xQN_rx9tWH9zYPlzfbFSywCxBqKo51PVsGALOtaBjn1QWi4YjqGcSUjwGonowQ1vcfT5k-Czgy2zw2GVSRk5th9eII-xoK_Q7IElKrAjy0FBPbUYx6z9z0kb53xXDfsuDoDzoJhtcCIHcpgwwOfoRBfvPLOhT_Z13Caa4x8ShaKgqs9l6hrujpFn8FyZMoLBktUU9p4d5WCr8if8v64d0pwL3-RyIi88NNBtYNQjp4JQQHCVzY3C8-HRg1pgOtpI6ZyqU9sCXLkhaMpdeM_d8Dvt1nhkTq9j8GSl3Hwvpputh4_5uk5m0uzYiNYGsX78TAWZMWXczgP26SYeUs0emhVMQP7YvJybqGXTAOdZgS0PQvuQZxnW3jEqaOny-kWncxNX1Sa6xGyJIVrOIPC5WJQ8Q_eQR2CYfTgrC8iyJbeV4QJ-Px2_OWYc_Cxu3pyiuN3KEcjEEqggQWP7mqgNxw7TkmeUJm6TFmnrjwSc9zXr6pZLVNft6wVcOz_gwhABke_]--></g></svg>

<svg xmlns="http://www.w3.org/2000/svg" width="362" height="838" preserveAspectRatio="none" style="width:362px;height:838px"><rect width="237" height="179.273" x="62.5" y="651.74" fill="#3D176E" rx="2.5" ry="2.5" style="stroke:#000d19;stroke-width:.5"/><circle cx="77.5" cy="671.635" r="11" fill="#ADD1B2" style="stroke:#181818;stroke-width:1"/><path d="M80.469 677.275q-.578.297-1.219.438-.64.156-1.344.156-2.5 0-3.828-1.64-1.312-1.657-1.312-4.782t1.312-4.781q1.328-1.657 3.828-1.657.703 0 1.344.157.656.156 1.219.453v2.719q-.625-.578-1.219-.844-.594-.281-1.219-.281-1.344 0-2.031 1.078-.688 1.062-.688 3.156 0 2.094.688 3.172.688 1.062 2.031 1.062.625 0 1.219-.265.594-.282 1.219-.86v2.72Z"/><text x="96.5" y="677.52" fill="#D9B8FF" font-family="Helvetica" font-size="17" textLength="195">gcp_deprecation_status</text><path d="M63.5 691.529h235" style="stroke:#000d19;stroke-width:.5"/><text x="73.5" y="713.524" fill="#D9B8FF" font-family="sans-serif" font-size="14" font-weight="bold" textLength="60">deleted</text><text x="133.5" y="713.524" fill="#D9B8FF" font-family="sans-serif" font-size="14" textLength="48">: string</text><text x="73.5" y="739.821" fill="#D9B8FF" font-family="sans-serif" font-size="14" font-weight="bold" textLength="91">deprecated</text><text x="164.5" y="739.821" fill="#D9B8FF" font-family="sans-serif" font-size="14" textLength="48">: string</text><text x="73.5" y="766.118" fill="#D9B8FF" font-family="sans-serif" font-size="14" font-weight="bold" textLength="69">obsolete</text><text x="142.5" y="766.118" fill="#D9B8FF" font-family="sans-serif" font-size="14" textLength="48">: string</text><text x="73.5" y="792.415" fill="#D9B8FF" font-family="sans-serif" font-size="14" font-weight="bold" textLength="99">replacement</text><text x="172.5" y="792.415" fill="#D9B8FF" font-family="sans-serif" font-size="14" textLength="48">: string</text><text x="73.5" y="818.712" fill="#D9B8FF" font-family="sans-serif" font-size="14" font-weight="bold" textLength="40">state</text><text x="113.5" y="818.712" fill="#D9B8FF" font-family="sans-serif" font-size="14" textLength="48">: string</text><rect width="348" height="152.977" x="7" y="438.76" fill="#3D176E" rx="2.5" ry="2.5" style="stroke:#000d19;stroke-width:.5"/><circle cx="117.75" cy="458.654" r="11" fill="#ADD1B2" style="stroke:#181818;stroke-width:1"/><path d="M120.719 464.295q-.578.297-1.219.438-.64.156-1.344.156-2.5 0-3.828-1.64-1.312-1.657-1.312-4.782t1.312-4.781q1.328-1.656 3.828-1.656.703 0 1.344.156.656.156 1.219.453v2.719q-.625-.579-1.219-.844-.594-.281-1.219-.281-1.344 0-2.031 1.078-.688 1.062-.688 3.156 0 2.094.688 3.172.688 1.062 2.031 1.062.625 0 1.219-.265.594-.281 1.219-.86v2.72Z"/><text x="143.25" y="464.54" fill="#D9B8FF" font-family="Helvetica" font-size="17" textLength="108">gcp_resource</text><path d="M8 478.549h346" style="stroke:#000d19;stroke-width:.5"/><text x="18" y="500.544" fill="#D9B8FF" font-family="sans-serif" font-size="14" font-weight="bold" textLength="151">deprecation_status</text><text x="169" y="500.544" fill="#D9B8FF" font-family="sans-serif" font-size="14" textLength="175">: gcp_deprecation_status</text><text x="18" y="526.841" fill="#D9B8FF" font-family="sans-serif" font-size="14" font-weight="bold" textLength="89">description</text><text x="107" y="526.841" fill="#D9B8FF" font-family="sans-serif" font-size="14" textLength="48">: string</text><text x="18" y="553.138" fill="#D9B8FF" font-family="sans-serif" font-size="14" font-weight="bold" textLength="128">label_fingerprint</text><text x="146" y="553.138" fill="#D9B8FF" font-family="sans-serif" font-size="14" textLength="48">: string</text><text x="18" y="579.435" fill="#D9B8FF" font-family="sans-serif" font-size="14" font-weight="bold" textLength="27">link</text><text x="45" y="579.435" fill="#D9B8FF" font-family="sans-serif" font-size="14" textLength="48">: string</text><rect width="227" height="310.758" x="67.5" y="7" fill="#3D176E" rx="2.5" ry="2.5" style="stroke:#000d19;stroke-width:.5"/><circle cx="136.25" cy="26.895" r="11" fill="#ADD1B2" style="stroke:#181818;stroke-width:1"/><path d="M139.219 32.535q-.578.297-1.219.438-.64.156-1.344.156-2.5 0-3.828-1.64-1.312-1.657-1.312-4.782t1.312-4.781q1.328-1.656 3.828-1.656.703 0 1.344.156.656.156 1.219.453v2.719q-.625-.578-1.219-.844-.594-.281-1.219-.281-1.344 0-2.031 1.078-.688 1.062-.688 3.156 0 2.094.688 3.172.688 1.062 2.031 1.062.625 0 1.219-.265.594-.281 1.219-.86v2.72Z"/><text x="161.75" y="32.78" fill="#D9B8FF" font-family="Helvetica" font-size="17" textLength="71">resource</text><path d="M68.5 46.789h225" style="stroke:#000d19;stroke-width:.5"/><text x="78.5" y="68.784" fill="#D9B8FF" font-family="sans-serif" font-size="14" font-weight="bold" textLength="29">age</text><text x="107.5" y="68.784" fill="#D9B8FF" font-family="sans-serif" font-size="14" textLength="66">: duration</text><text x="78.5" y="95.081" fill="#D9B8FF" font-family="sans-serif" font-size="14" font-weight="bold" textLength="43">atime</text><text x="121.5" y="95.081" fill="#D9B8FF" font-family="sans-serif" font-size="14" textLength="70">: datetime</text><text x="78.5" y="121.378" fill="#D9B8FF" font-family="sans-serif" font-size="14" font-weight="bold" textLength="43">ctime</text><text x="121.5" y="121.378" fill="#D9B8FF" font-family="sans-serif" font-size="14" textLength="70">: datetime</text><text x="78.5" y="147.675" fill="#D9B8FF" font-family="sans-serif" font-size="14" font-weight="bold" textLength="14">id</text><text x="92.5" y="147.675" fill="#D9B8FF" font-family="sans-serif" font-size="14" textLength="48">: string</text><text x="78.5" y="173.972" fill="#D9B8FF" font-family="sans-serif" font-size="14" font-weight="bold" textLength="33">kind</text><text x="111.5" y="173.972" fill="#D9B8FF" font-family="sans-serif" font-size="14" textLength="48">: string</text><text x="78.5" y="200.269" fill="#D9B8FF" font-family="sans-serif" font-size="14" font-weight="bold" textLength="90">last_access</text><text x="168.5" y="200.269" fill="#D9B8FF" font-family="sans-serif" font-size="14" textLength="66">: duration</text><text x="78.5" y="226.565" fill="#D9B8FF" font-family="sans-serif" font-size="14" font-weight="bold" textLength="90">last_update</text><text x="168.5" y="226.565" fill="#D9B8FF" font-family="sans-serif" font-size="14" textLength="66">: duration</text><text x="78.5" y="252.862" fill="#D9B8FF" font-family="sans-serif" font-size="14" font-weight="bold" textLength="48">mtime</text><text x="126.5" y="252.862" fill="#D9B8FF" font-family="sans-serif" font-size="14" textLength="70">: datetime</text><text x="78.5" y="279.159" fill="#D9B8FF" font-family="sans-serif" font-size="14" font-weight="bold" textLength="43">name</text><text x="121.5" y="279.159" fill="#D9B8FF" font-family="sans-serif" font-size="14" textLength="48">: string</text><text x="78.5" y="305.456" fill="#D9B8FF" font-family="sans-serif" font-size="14" font-weight="bold" textLength="34">tags</text><text x="112.5" y="305.456" fill="#D9B8FF" font-family="sans-serif" font-size="14" textLength="171">: dictionary[string, string]</text><path fill="none" d="M181 592.13v53.74" style="stroke:#ffaf37;stroke-width:2"/><path fill="#FFAF37" d="m181 650.41 4-9-4 4-4-4 4 9z" style="stroke:#ffaf37;stroke-width:2"/><path fill="none" d="M181 338.65v99.66m-7-99.27 7-20 7 20h-14z" style="stroke:#ffaf37;stroke-width:2"/></svg>
